tools/download-figma-icons/icons/outlined-large/binoculars.svg

<svg width="64" height="64" viewBox="0 0 64 64" fill="none" xmlns="http://www.w3.org/2000/svg">
<path fill-rule="evenodd" clip-rule="evenodd" d="M49.5 56C43.159 56 38 50.841 38 44.5C38 44.491 38.001 44.482 38.001 44.474C38.0019 44.4665 38.0033 44.4592 38.0048 44.452L38.0048 44.4518C38.0067 44.4428 38.0084 44.4339 38.009 44.425L38.073 43.234C38.706 37.487 43.588 33.001 49.5 33.001C55.841 33.001 61 38.159 61 44.5C61 50.841 55.841 56 49.5 56ZM14.5 56C8.159 56 3 50.841 3 44.5C3 38.159 8.159 33.001 14.5 33.001C20.841 33.001 26 38.159 26 44.5C26 50.841 20.841 56 14.5 56ZM15.847 15.653C15.866 15.614 15.888 15.562 15.903 15.521C16.031 15.192 17.25 12.328 20.866 13.211C24.437 14.075 24.612 18.441 24.619 18.669L25.514 35.094C22.852 31.982 18.906 30.001 14.5 30.001C12.187 30.001 10.007 30.56 8.064 31.526L15.847 15.653ZM20.273 9H20.278C21.977 9.024 22.934 9.244 23.773 9.785C23.915 9.953 23.985 10.547 23.871 11.285C23.215 10.853 22.454 10.508 21.573 10.295C20.83 10.115 20.144 10.046 19.501 10.048C19.695 9.453 19.965 9 20.273 9ZM40.222 9.813C41.097 9.244 42.054 9.024 43.752 9H43.757C44.065 9 44.334 9.452 44.529 10.048C43.887 10.046 43.2 10.115 42.457 10.295C41.575 10.509 40.813 10.854 40.156 11.287C40.038 10.553 40.1 9.966 40.222 9.813ZM28.84 41H35.19L35.09 42.843H28.94L28.84 41ZM35.354 38H28.677L27.696 20.001H36.334L35.354 38ZM48.184 15.653L55.976 31.546C54.023 30.566 51.829 30.001 49.5 30.001C45.111 30.001 41.18 31.969 38.519 35.06L39.412 18.627C39.418 18.441 39.594 14.075 43.164 13.211C46.778 12.332 47.999 15.193 48.122 15.51C48.14 15.559 48.16 15.606 48.184 15.653ZM62.406 37.924C62.381 37.824 62.346 37.726 62.299 37.629L50.908 14.396C50.48 13.291 49.455 11.779 47.777 10.857C47.503 8.719 46.449 6 43.767 6H43.709C42.05 6.023 40.28 6.197 38.586 7.299C36.763 8.485 36.739 11.423 37.803 13.805C37.17 14.869 36.787 16.006 36.59 17.001H27.437C27.237 16.001 26.854 14.867 26.227 13.808C27.291 11.426 27.268 8.485 25.443 7.298C23.75 6.197 21.98 6.023 20.321 6H20.264C17.582 6 16.527 8.719 16.253 10.857C14.575 11.779 13.55 13.291 13.122 14.396L1.732 37.629C1.73034 37.6336 1.72903 37.6379 1.7277 37.6424C1.72583 37.6486 1.72393 37.655 1.721 37.662C0.625 39.7 0 42.028 0 44.5C0 52.495 6.505 59 14.5 59C22.042 59 28.252 53.21 28.932 45.843H35.068C35.748 53.21 41.958 59 49.5 59C57.495 59 64 52.495 64 44.5C64 42.132 63.418 39.9 62.406 37.924ZM12.8496 35.1445C12.0346 35.2895 11.4896 36.0665 11.6326 36.8825C11.7786 37.6995 12.5636 38.2475 13.3706 38.0995C16.9036 37.4745 20.2786 39.8425 20.9016 43.3725C21.1086 44.5465 21.0646 45.6415 20.7736 46.5365C20.5176 47.3245 20.9496 48.1705 21.7366 48.4265C21.8906 48.4765 22.0466 48.4995 22.2006 48.4995C22.8326 48.4995 23.4206 48.0975 23.6266 47.4635C24.0756 46.0825 24.1526 44.5315 23.8566 42.8505C22.9456 37.6915 18.0016 34.2385 12.8496 35.1445ZM46.6326 36.8825C46.4896 36.0665 47.0346 35.2895 47.8496 35.1445C53.0046 34.2385 57.9456 37.6915 58.8566 42.8505C59.1526 44.5315 59.0756 46.0825 58.6266 47.4635C58.4206 48.0975 57.8326 48.4995 57.2006 48.4995C57.0466 48.4995 56.8906 48.4765 56.7366 48.4265C55.9496 48.1705 55.5176 47.3245 55.7736 46.5365C56.0646 45.6415 56.1086 44.5465 55.9016 43.3725C55.2796 39.8425 51.8976 37.4745 48.3706 38.0995C47.5646 38.2475 46.7786 37.6995 46.6326 36.8825Z" fill="black"/>
</svg>

<svg width="64" height="64" viewBox="0 0 64 64" fill="none" xmlns="http://www.w3.org/2000/svg"><path fill-rule="evenodd" clip-rule="evenodd" d="M49.5 56C43.159 56 38 50.841 38 44.5l.001-.026c0-.007.002-.015.004-.022a.194.194 0 0 0 .004-.027l.064-1.191c.633-5.747 5.515-10.233 11.427-10.233 6.341 0 11.5 5.158 11.5 11.499S55.841 56 49.5 56Zm-35 0C8.159 56 3 50.841 3 44.5s5.159-11.499 11.5-11.499S26 38.159 26 44.5 20.841 56 14.5 56Zm1.347-40.347c.019-.039.041-.091.056-.132.128-.329 1.347-3.193 4.963-2.31 3.571.864 3.746 5.23 3.753 5.458l.895 16.425c-2.662-3.112-6.608-5.093-11.014-5.093-2.313 0-4.493.559-6.436 1.525l7.783-15.873ZM20.273 9h.005c1.699.024 2.656.244 3.495.785.142.168.212.762.098 1.5a7.238 7.238 0 0 0-2.298-.99 8.61 8.61 0 0 0-2.072-.247c.194-.595.464-1.048.772-1.048Zm19.949.813c.875-.569 1.832-.789 3.53-.813h.005c.308 0 .577.452.772 1.048a8.615 8.615 0 0 0-2.072.247 7.258 7.258 0 0 0-2.301.992c-.118-.734-.056-1.321.066-1.474ZM28.84 41h6.35l-.1 1.843h-6.15L28.84 41Zm6.514-3h-6.677l-.981-17.999h8.638L35.354 38Zm12.83-22.347 7.792 15.893a14.392 14.392 0 0 0-6.476-1.545c-4.389 0-8.32 1.968-10.981 5.059l.893-16.433c.006-.186.182-4.552 3.752-5.416 3.614-.879 4.835 1.982 4.958 2.299.018.049.038.096.062.143Zm14.222 22.271c-.025-.1-.06-.198-.107-.295L50.908 14.396c-.428-1.105-1.453-2.617-3.131-3.539C47.503 8.719 46.449 6 43.767 6h-.058c-1.659.023-3.429.197-5.123 1.299-1.823 1.186-1.847 4.124-.783 6.506a10.215 10.215 0 0 0-1.213 3.196h-9.153c-.2-1-.583-2.134-1.21-3.193 1.064-2.382 1.041-5.323-.784-6.51C23.75 6.197 21.98 6.023 20.321 6h-.057c-2.682 0-3.737 2.719-4.011 4.857-1.678.922-2.703 2.434-3.131 3.539L1.732 37.629a.233.233 0 0 0-.004.013l-.007.02A14.396 14.396 0 0 0 0 44.5C0 52.495 6.505 59 14.5 59c7.542 0 13.752-5.79 14.432-13.157h6.136C35.748 53.21 41.958 59 49.5 59 57.495 59 64 52.495 64 44.5c0-2.368-.582-4.6-1.594-6.576Zm-49.556-2.78a1.502 1.502 0 0 0-1.217 1.739 1.502 1.502 0 0 0 1.738 1.216 6.505 6.505 0 0 1 7.53 5.274c.208 1.174.164 2.269-.127 3.163a1.5 1.5 0 0 0 2.853.928c.449-1.381.526-2.932.23-4.614-.911-5.159-5.855-8.611-11.007-7.706Zm33.783 1.739a1.502 1.502 0 0 1 1.217-1.739c5.155-.905 10.096 2.547 11.007 7.706.296 1.681.219 3.233-.23 4.614a1.5 1.5 0 0 1-2.853-.928c.29-.895.335-1.99.128-3.163-.622-3.53-4.004-5.898-7.531-5.273a1.503 1.503 0 0 1-1.738-1.218Z" fill="currentColor"/></svg>
